brandFactory_export/3.Masa/Balanza_Justicia_Legal_3Masa.svg

<?xml version="1.0" encoding="UTF-8"?>
<svg width="24px" height="24px" viewBox="0 0 24 24" version="1.1" xmlns="http://www.w3.org/2000/svg" xmlns:xlink="http://www.w3.org/1999/xlink">
    <title>3.Masa/Balanza_Justicia_Legal_3Masa</title>
    <g id="Symbols" stroke="none" stroke-width="1" fill="none" fill-rule="evenodd">
        <g id="3.Masa/Balanza_Justicia_Legal_3Masa" fill="#5CB615" fill-rule="nonzero">
            <path d="M18.9546218,6.8 L21.7546218,13.6 L16.9042017,13.6 L18.9546218,6.8 Z M6.71932773,13.6 L1.86890756,13.6 L4.66890756,6.8 L6.71932773,13.6 L6.71932773,13.6 Z M23.6235294,14.3731092 C23.6235294,14.3394958 23.610084,14.3092437 23.6033613,14.2722689 C23.5932773,14.2016807 23.589916,14.1344538 23.5630252,14.0705882 L20.0201681,5.46890756 C20.1815126,5.53613445 20.3294118,5.62016807 20.4436975,5.73109244 C20.5848739,5.87563025 20.7731092,5.94621849 20.9546218,5.94621849 C21.1495798,5.94621849 21.3445378,5.86554622 21.4890756,5.70756303 C21.7714286,5.40168067 21.7613445,4.91092437 21.4689076,4.61176471 C20.9445378,4.08739496 20.2319328,3.79831933 19.3478992,3.75462185 C19.2773109,3.7512605 15.3478992,3.74789916 13.0689076,3.74789916 C13.1563025,3.68739496 13.2403361,3.62689076 13.3176471,3.54957983 C13.6571429,3.20672269 13.8285714,2.69915966 13.8285714,2.04369748 C13.8285714,1.38151261 13.6571429,0.87394958 13.3176471,0.531092437 C12.9915966,0.198319328 12.5176471,0.0302521008 11.912605,0.0302521008 C11.9058824,0.0302521008 11.8991597,0.0302521008 11.8957983,0.0336134454 L11.8957983,0.0302521008 L11.7210084,0.0302521008 C11.112605,0.0302521008 10.6420168,0.198319328 10.3159664,0.531092437 C9.97647059,0.87394958 9.80168067,1.38151261 9.80168067,2.04369748 C9.80168067,2.69915966 9.97310924,3.20672269 10.3159664,3.54957983 C10.389916,3.62352941 10.4739496,3.68739496 10.5647059,3.74789916 C8.28235294,3.74789916 4.35294118,3.74789916 4.28235294,3.75462185 C3.40168067,3.79831933 2.68571429,4.08739496 2.16134454,4.61176471 C1.86554622,4.90756303 1.85546218,5.39831933 2.13781513,5.70756303 C2.28571429,5.86890756 2.48067227,5.94621849 2.67226891,5.94621849 C2.85714286,5.94621849 3.04201681,5.87563025 3.18655462,5.73109244 C3.29747899,5.62016807 3.4487395,5.53613445 3.60672269,5.46890756 L0.0638655462,14.0705882 C0.0369747899,14.1344538 0.0302521008,14.205042 0.0235294118,14.2722689 C0.0201680672,14.3058824 0.00336134454,14.3394958 0.00336134454,14.3731092 L0.00336134454,14.3764706 C0.00336134454,15.4789916 0.312605042,16.3462185 0.917647059,16.9546218 C1.43193277,17.4722689 2.12436975,17.7647059 2.97815126,17.8252101 C3.07563025,17.8319328 4.13445378,17.8386555 4.23529412,17.8386555 C4.30588235,17.8386555 5.3210084,17.8352941 5.39159664,17.8319328 C6.29243697,17.7882353 7.02184874,17.4957983 7.55966387,16.9579832 C8.1512605,16.3630252 8.45378151,15.5193277 8.47058824,14.4605042 C8.47058824,14.4537815 8.47058824,14.4470588 8.47394958,14.4403361 C8.47394958,14.4168067 8.47731092,14.3966387 8.47731092,14.3764706 C8.47731092,14.3327731 8.4605042,14.2957983 8.45378151,14.2554622 C8.44705882,14.2184874 8.45378151,14.1815126 8.44033613,14.1411765 L5.77478992,5.30084034 C6.87058824,5.30084034 8.39327731,5.30084034 9.68067227,5.29747899 L9.68067227,19.6201681 L7.94621849,19.6201681 C6.99495798,19.6201681 6.23865546,19.902521 5.6907563,20.4571429 C5.12268908,21.0319328 4.83361345,21.8487395 4.83361345,22.8806723 C4.83361345,23.307563 5.16638655,23.6537815 5.57647059,23.6537815 C5.59663866,23.6537815 5.62016807,23.6436975 5.64033613,23.6403361 C5.66386555,23.6436975 5.68067227,23.6537815 5.70420168,23.6537815 L17.9327731,23.6537815 C17.9529412,23.6537815 17.9764706,23.6436975 17.9966387,23.6403361 C18.0201681,23.6436975 18.0369748,23.6537815 18.0638655,23.6537815 C18.4739496,23.6537815 18.8067227,23.307563 18.8067227,22.8806723 C18.8067227,21.8453782 18.5176471,21.0319328 17.9462185,20.4571429 C17.3983193,19.902521 16.6386555,19.6201681 15.687395,19.6201681 L13.9529412,19.6201681 L13.9529412,5.29747899 C15.2403361,5.29747899 16.7630252,5.29747899 17.8621849,5.30084034 L15.1932773,14.1411765 C15.1831933,14.1815126 15.189916,14.2184874 15.1831933,14.2554622 C15.1764706,14.2957983 15.1596639,14.3327731 15.1596639,14.3764706 C15.1596639,14.3966387 15.1630252,14.4168067 15.1630252,14.4403361 C15.1630252,14.4470588 15.1630252,14.4537815 15.1663866,14.4605042 C15.1831933,15.5193277 15.4857143,16.3630252 16.0773109,16.9579832 C16.6151261,17.4957983 17.3411765,17.7882353 18.2420168,17.8319328 C18.312605,17.8352941 19.3277311,17.8386555 19.394958,17.8386555 C19.4991597,17.8386555 20.5579832,17.8319328 20.6554622,17.8252101 C21.5092437,17.7647059 22.2016807,17.4722689 22.7159664,16.9546218 C23.3176471,16.3428571 23.6235294,15.4756303 23.6235294,14.3731092 Z" id="Balanza_Justicia_Legal_3Masa"></path>
        </g>
    </g>
</svg>

<svg width="24" height="24" viewBox="0 0 24 24" xmlns="http://www.w3.org/2000/svg"><path d="M18.955 6.8l2.8 6.8h-4.85l2.05-6.8zM6.719 13.6H1.87l2.8-6.8 2.05 6.8zm16.905.773c0-.034-.014-.064-.02-.1-.01-.071-.014-.139-.041-.202L20.02 5.469c.162.067.31.151.424.262a.716.716 0 001.045-.023.804.804 0 00-.02-1.096c-.524-.525-1.237-.814-2.121-.857-.07-.004-4-.007-6.28-.007a1.74 1.74 0 00.25-.198c.34-.343.51-.85.51-1.506 0-.662-.17-1.17-.51-1.513-.326-.333-.8-.5-1.405-.5-.007 0-.014 0-.017.003V.03h-.175c-.608 0-1.079.168-1.405.501-.34.343-.514.85-.514 1.513 0 .655.171 1.163.514 1.506.074.074.158.137.249.198-2.283 0-6.212 0-6.283.007-.88.043-1.596.332-2.12.857a.8.8 0 00-.024 1.096.722.722 0 001.049.023c.11-.11.262-.195.42-.262L.064 14.07c-.027.063-.034.134-.04.201-.004.034-.02.067-.02.101v.003c0 1.103.309 1.97.914 2.579.514.517 1.206.81 2.06.87a77.96 77.96 0 002.414.007c.9-.044 1.63-.336 2.168-.874.591-.595.894-1.439.91-2.497 0-.007 0-.014.004-.02 0-.024.003-.044.003-.065 0-.043-.016-.08-.023-.12-.007-.038 0-.074-.014-.115l-2.665-8.84c1.096 0 2.618 0 3.906-.004V19.62H7.946c-.951 0-1.707.283-2.255.837-.568.575-.857 1.392-.857 2.424 0 .427.332.773.742.773.02 0 .044-.01.064-.014.024.004.04.014.064.014h12.229c.02 0 .043-.01.064-.014.023.004.04.014.067.014.41 0 .743-.346.743-.773 0-1.036-.29-1.85-.86-2.424-.549-.554-1.308-.837-2.26-.837h-1.734V5.297c1.287 0 2.81 0 3.91.004l-2.67 8.84c-.01.04-.003.077-.01.114-.007.04-.023.078-.023.121 0 .02.003.04.003.064 0 .007 0 .014.003.02.017 1.06.32 1.903.911 2.498.538.538 1.264.83 2.165.874a77.963 77.963 0 002.413-.007c.854-.06 1.547-.353 2.061-.87.602-.612.908-1.48.908-2.582z" fill="#5CB615" fill-rule="nonzero"/></svg>
